images/dest/icon--instagram.svg

<svg width="24" height="24" viewBox="0 0 24 24" fill="none" xmlns="http://www.w3.org/2000/svg">
<path d="M23.7395 6.90823C23.7252 5.92597 23.5436 4.9515 23.1958 4.03283C22.5873 2.46407 21.3481 1.2236 19.7793 0.616343C18.8724 0.275084 17.9135 0.0921271 16.9429 0.0713661C15.6946 0.0155709 15.2989 0 12.1302 0C8.96156 0 8.55542 8.70084e-08 7.31625 0.0713661C6.34697 0.0921271 5.38807 0.275084 4.48107 0.616343C2.91232 1.2236 1.67184 2.46407 1.06458 4.03283C0.723326 4.93983 0.539072 5.89873 0.520906 6.86801C0.465111 8.11756 0.448242 8.51332 0.448242 11.682C0.448242 14.8506 0.448242 15.2555 0.520906 16.4959C0.540369 17.4665 0.723326 18.4241 1.06458 19.3337C1.67314 20.9012 2.91232 22.1416 4.48237 22.7489C5.38547 23.1018 6.34437 23.3016 7.31755 23.3328C8.5671 23.3886 8.96286 23.4055 12.1315 23.4055C15.3002 23.4055 15.7063 23.4055 16.9455 23.3328C17.9147 23.3133 18.8736 23.1304 19.7819 22.7891C21.3507 22.1806 22.5899 20.9401 23.1984 19.3726C23.5397 18.4643 23.7226 17.5067 23.7421 16.5349C23.7979 15.2866 23.8148 14.8908 23.8148 11.7209C23.8122 8.55224 23.8122 8.15 23.7395 6.90823ZM12.1224 17.6741C8.80845 17.6741 6.12379 14.9895 6.12379 11.6755C6.12379 8.3615 8.80845 5.67684 12.1224 5.67684C15.4338 5.67684 18.1211 8.3615 18.1211 11.6755C18.1211 14.9895 15.4338 17.6741 12.1224 17.6741ZM18.3598 6.85373C17.5852 6.85373 16.961 6.22831 16.961 5.45496C16.961 4.68161 17.5852 4.05618 18.3598 4.05618C19.1319 4.05618 19.7573 4.68161 19.7573 5.45496C19.7573 6.22831 19.1319 6.85373 18.3598 6.85373Z" fill="black"/>
<path d="M23.7395 6.90823C23.7252 5.92597 23.5436 4.9515 23.1958 4.03283C22.5873 2.46407 21.3481 1.2236 19.7793 0.616343C18.8724 0.275084 17.9135 0.0921271 16.9429 0.0713661C15.6946 0.0155709 15.2989 0 12.1302 0C8.96156 0 8.55542 8.70084e-08 7.31625 0.0713661C6.34697 0.0921271 5.38807 0.275084 4.48107 0.616343C2.91232 1.2236 1.67184 2.46407 1.06458 4.03283C0.723326 4.93983 0.539072 5.89873 0.520906 6.86801C0.465111 8.11756 0.448242 8.51332 0.448242 11.682C0.448242 14.8506 0.448242 15.2555 0.520906 16.4959C0.540369 17.4665 0.723326 18.4241 1.06458 19.3337C1.67314 20.9012 2.91232 22.1416 4.48237 22.7489C5.38547 23.1018 6.34437 23.3016 7.31755 23.3328C8.5671 23.3886 8.96286 23.4055 12.1315 23.4055C15.3002 23.4055 15.7063 23.4055 16.9455 23.3328C17.9147 23.3133 18.8736 23.1304 19.7819 22.7891C21.3507 22.1806 22.5899 20.9401 23.1984 19.3726C23.5397 18.4643 23.7226 17.5067 23.7421 16.5349C23.7979 15.2866 23.8148 14.8908 23.8148 11.7209C23.8122 8.55224 23.8122 8.15 23.7395 6.90823ZM12.1224 17.6741C8.80845 17.6741 6.12379 14.9895 6.12379 11.6755C6.12379 8.3615 8.80845 5.67684 12.1224 5.67684C15.4338 5.67684 18.1211 8.3615 18.1211 11.6755C18.1211 14.9895 15.4338 17.6741 12.1224 17.6741ZM18.3598 6.85373C17.5852 6.85373 16.961 6.22831 16.961 5.45496C16.961 4.68161 17.5852 4.05618 18.3598 4.05618C19.1319 4.05618 19.7573 4.68161 19.7573 5.45496C19.7573 6.22831 19.1319 6.85373 18.3598 6.85373Z" fill="url(#paint0_linear)"/>
<path d="M23.7395 6.90823C23.7252 5.92597 23.5436 4.9515 23.1958 4.03283C22.5873 2.46407 21.3481 1.2236 19.7793 0.616343C18.8724 0.275084 17.9135 0.0921271 16.9429 0.0713661C15.6946 0.0155709 15.2989 0 12.1302 0C8.96156 0 8.55542 8.70084e-08 7.31625 0.0713661C6.34697 0.0921271 5.38807 0.275084 4.48107 0.616343C2.91232 1.2236 1.67184 2.46407 1.06458 4.03283C0.723326 4.93983 0.539072 5.89873 0.520906 6.86801C0.465111 8.11756 0.448242 8.51332 0.448242 11.682C0.448242 14.8506 0.448242 15.2555 0.520906 16.4959C0.540369 17.4665 0.723326 18.4241 1.06458 19.3337C1.67314 20.9012 2.91232 22.1416 4.48237 22.7489C5.38547 23.1018 6.34437 23.3016 7.31755 23.3328C8.5671 23.3886 8.96286 23.4055 12.1315 23.4055C15.3002 23.4055 15.7063 23.4055 16.9455 23.3328C17.9147 23.3133 18.8736 23.1304 19.7819 22.7891C21.3507 22.1806 22.5899 20.9401 23.1984 19.3726C23.5397 18.4643 23.7226 17.5067 23.7421 16.5349C23.7979 15.2866 23.8148 14.8908 23.8148 11.7209C23.8122 8.55224 23.8122 8.15 23.7395 6.90823ZM12.1224 17.6741C8.80845 17.6741 6.12379 14.9895 6.12379 11.6755C6.12379 8.3615 8.80845 5.67684 12.1224 5.67684C15.4338 5.67684 18.1211 8.3615 18.1211 11.6755C18.1211 14.9895 15.4338 17.6741 12.1224 17.6741ZM18.3598 6.85373C17.5852 6.85373 16.961 6.22831 16.961 5.45496C16.961 4.68161 17.5852 4.05618 18.3598 4.05618C19.1319 4.05618 19.7573 4.68161 19.7573 5.45496C19.7573 6.22831 19.1319 6.85373 18.3598 6.85373Z" fill="url(#paint1_linear)"/>
<path d="M23.7395 6.90823C23.7252 5.92597 23.5436 4.9515 23.1958 4.03283C22.5873 2.46407 21.3481 1.2236 19.7793 0.616343C18.8724 0.275084 17.9135 0.0921271 16.9429 0.0713661C15.6946 0.0155709 15.2989 0 12.1302 0C8.96156 0 8.55542 8.70084e-08 7.31625 0.0713661C6.34697 0.0921271 5.38807 0.275084 4.48107 0.616343C2.91232 1.2236 1.67184 2.46407 1.06458 4.03283C0.723326 4.93983 0.539072 5.89873 0.520906 6.86801C0.465111 8.11756 0.448242 8.51332 0.448242 11.682C0.448242 14.8506 0.448242 15.2555 0.520906 16.4959C0.540369 17.4665 0.723326 18.4241 1.06458 19.3337C1.67314 20.9012 2.91232 22.1416 4.48237 22.7489C5.38547 23.1018 6.34437 23.3016 7.31755 23.3328C8.5671 23.3886 8.96286 23.4055 12.1315 23.4055C15.3002 23.4055 15.7063 23.4055 16.9455 23.3328C17.9147 23.3133 18.8736 23.1304 19.7819 22.7891C21.3507 22.1806 22.5899 20.9401 23.1984 19.3726C23.5397 18.4643 23.7226 17.5067 23.7421 16.5349C23.7979 15.2866 23.8148 14.8908 23.8148 11.7209C23.8122 8.55224 23.8122 8.15 23.7395 6.90823ZM12.1224 17.6741C8.80845 17.6741 6.12379 14.9895 6.12379 11.6755C6.12379 8.3615 8.80845 5.67684 12.1224 5.67684C15.4338 5.67684 18.1211 8.3615 18.1211 11.6755C18.1211 14.9895 15.4338 17.6741 12.1224 17.6741ZM18.3598 6.85373C17.5852 6.85373 16.961 6.22831 16.961 5.45496C16.961 4.68161 17.5852 4.05618 18.3598 4.05618C19.1319 4.05618 19.7573 4.68161 19.7573 5.45496C19.7573 6.22831 19.1319 6.85373 18.3598 6.85373Z" fill="url(#paint2_linear)"/>
<path d="M12.1224 15.5725C14.2744 15.5725 16.019 13.8279 16.019 11.6759C16.019 9.52386 14.2744 7.7793 12.1224 7.7793C9.97039 7.7793 8.22583 9.52386 8.22583 11.6759C8.22583 13.8279 9.97039 15.5725 12.1224 15.5725Z" fill="black"/>
<path d="M12.1224 15.5725C14.2744 15.5725 16.019 13.8279 16.019 11.6759C16.019 9.52386 14.2744 7.7793 12.1224 7.7793C9.97039 7.7793 8.22583 9.52386 8.22583 11.6759C8.22583 13.8279 9.97039 15.5725 12.1224 15.5725Z" fill="url(#paint3_linear)"/>
<path d="M12.1224 15.5725C14.2744 15.5725 16.019 13.8279 16.019 11.6759C16.019 9.52386 14.2744 7.7793 12.1224 7.7793C9.97039 7.7793 8.22583 9.52386 8.22583 11.6759C8.22583 13.8279 9.97039 15.5725 12.1224 15.5725Z" fill="url(#paint4_linear)"/>
<path d="M12.1224 15.5725C14.2744 15.5725 16.019 13.8279 16.019 11.6759C16.019 9.52386 14.2744 7.7793 12.1224 7.7793C9.97039 7.7793 8.22583 9.52386 8.22583 11.6759C8.22583 13.8279 9.97039 15.5725 12.1224 15.5725Z" fill="url(#paint5_linear)"/>
<defs>
<linearGradient id="paint0_linear" x1="12.1315" y1="0" x2="12.1315" y2="23.4055" gradientUnits="userSpaceOnUse">
<stop stop-color="#B299DA"/>
<stop offset="1" stop-color="#543784"/>
</linearGradient>
<linearGradient id="paint1_linear" x1="12.6378" y1="-3.27549" x2="12.8455" y2="29.1288" gradientUnits="userSpaceOnUse">
<stop stop-color="#D9C88B"/>
<stop offset="1" stop-color="#AA9036"/>
</linearGradient>
<linearGradient id="paint2_linear" x1="12.6378" y1="-3.27549" x2="12.8455" y2="29.1288" gradientUnits="userSpaceOnUse">
<stop offset="0.0904391" stop-color="#DDAE09"/>
<stop offset="0.127005" stop-color="#FFF5D0"/>
<stop offset="0.271574" stop-color="#D1BA6A"/>
<stop offset="0.510797" stop-color="#B9A049"/>
<stop offset="0.706074" stop-color="#AB9135"/>
<stop offset="0.823361" stop-color="#AD9D61"/>
</linearGradient>
<linearGradient id="paint3_linear" x1="12.1224" y1="7.7793" x2="12.1224" y2="15.5725" gradientUnits="userSpaceOnUse">
<stop stop-color="#B299DA"/>
<stop offset="1" stop-color="#543784"/>
</linearGradient>
<linearGradient id="paint4_linear" x1="12.2913" y1="6.68868" x2="12.3603" y2="17.4781" gradientUnits="userSpaceOnUse">
<stop stop-color="#D9C88B"/>
<stop offset="1" stop-color="#AA9036"/>
</linearGradient>
<linearGradient id="paint5_linear" x1="12.2913" y1="6.68868" x2="12.3603" y2="17.4781" gradientUnits="userSpaceOnUse">
<stop offset="0.0904391" stop-color="#DDAE09"/>
<stop offset="0.127005" stop-color="#FFF5D0"/>
<stop offset="0.271574" stop-color="#D1BA6A"/>
<stop offset="0.510797" stop-color="#B9A049"/>
<stop offset="0.706074" stop-color="#AB9135"/>
<stop offset="0.823361" stop-color="#AD9D61"/>
</linearGradient>
</defs>
</svg>

<svg width="24" height="24" fill="none" xmlns="http://www.w3.org/2000/svg"><path d="M23.74 6.908a8.474 8.474 0 00-.544-2.875A5.981 5.981 0 0019.779.616a8.572 8.572 0 00-2.836-.545C15.695.016 15.299 0 12.13 0 8.962 0 8.556 0 7.316.071a8.584 8.584 0 00-2.835.545 5.978 5.978 0 00-3.416 3.417A8.504 8.504 0 00.52 6.868C.465 8.118.448 8.513.448 11.682s0 3.573.073 4.814c.02.97.202 1.928.544 2.838a5.981 5.981 0 003.418 3.415 8.546 8.546 0 002.835.584c1.25.056 1.645.073 4.814.073 3.168 0 3.574 0 4.814-.073a8.55 8.55 0 002.836-.544 5.989 5.989 0 003.417-3.416 8.548 8.548 0 00.543-2.838c.056-1.248.073-1.644.073-4.814-.003-3.169-.003-3.571-.075-4.813zM12.123 17.674a5.997 5.997 0 01-6-5.998 5.999 5.999 0 115.999 5.999zm6.237-10.82a1.397 1.397 0 01-1.399-1.399 1.397 1.397 0 112.796 0c0 .773-.625 1.399-1.397 1.399z" fill="#000"/><path d="M23.74 6.908a8.474 8.474 0 00-.544-2.875A5.981 5.981 0 0019.779.616a8.572 8.572 0 00-2.836-.545C15.695.016 15.299 0 12.13 0 8.962 0 8.556 0 7.316.071a8.584 8.584 0 00-2.835.545 5.978 5.978 0 00-3.416 3.417A8.504 8.504 0 00.52 6.868C.465 8.118.448 8.513.448 11.682s0 3.573.073 4.814c.02.97.202 1.928.544 2.838a5.981 5.981 0 003.418 3.415 8.546 8.546 0 002.835.584c1.25.056 1.645.073 4.814.073 3.168 0 3.574 0 4.814-.073a8.55 8.55 0 002.836-.544 5.989 5.989 0 003.417-3.416 8.548 8.548 0 00.543-2.838c.056-1.248.073-1.644.073-4.814-.003-3.169-.003-3.571-.075-4.813zM12.123 17.674a5.997 5.997 0 01-6-5.998 5.999 5.999 0 115.999 5.999zm6.237-10.82a1.397 1.397 0 01-1.399-1.399 1.397 1.397 0 112.796 0c0 .773-.625 1.399-1.397 1.399z" fill="url(#paint0_linear)"/><path d="M12.123 15.572a3.897 3.897 0 100-7.793 3.897 3.897 0 000 7.793z" fill="#000"/><path d="M12.123 15.572a3.897 3.897 0 100-7.793 3.897 3.897 0 000 7.793z" fill="url(#paint1_linear)"/><defs><linearGradient id="paint0_linear" x1="12.132" y1="0" x2="12.132" y2="23.405" gradientUnits="userSpaceOnUse"><stop stop-color="#B299DA"/><stop offset="1" stop-color="#543784"/></linearGradient><linearGradient id="paint1_linear" x1="12.123" y1="7.779" x2="12.123" y2="15.572" gradientUnits="userSpaceOnUse"><stop stop-color="#B299DA"/><stop offset="1" stop-color="#543784"/></linearGradient></defs></svg>
